source/img/icon-like.svg

<svg enable-background="new 0 0 22 20" height="20" viewBox="0 0 22 20" width="22" xmlns="http://www.w3.org/2000/svg"><path d="m12.383 3.646-.637 2.929-.527 2.425h2.481 6.2v2c0 .018 0 .037.001.058l-2.901 6.942h-9v-9.971l.014-.015zm-10.383 6.354v8zm11.2-10-6.6 6.6c-.4.3-.6.8-.6 1.4v10c0 1.1.9 2 2 2h9c.8 0 1.5-.5 1.8-1.2l3-7.1c.1-.2.1-.5.1-.7v-2h.1c0-1.1-.9-2-2-2h-6.3l1-4.6v-.3c0-.4-.2-.8-.4-1.1zm-9.2 8h-4v12h4zm18 1v.044z"/></svg>

<svg height="20" viewBox="0 0 22 20" width="22" xmlns="http://www.w3.org/2000/svg"><path d="M12.383 3.646l-.637 2.929L11.219 9H19.9v2l.001.058L17 18H8V8.029l.014-.015zM2 10v8zM13.2 0L6.6 6.6c-.4.3-.6.8-.6 1.4v10c0 1.1.9 2 2 2h9c.8 0 1.5-.5 1.8-1.2l3-7.1c.1-.2.1-.5.1-.7V9h.1c0-1.1-.9-2-2-2h-6.3l1-4.6v-.3c0-.4-.2-.8-.4-1.1zM4 8H0v12h4zm18 1v.044z"/></svg>
